packages/elvis-assets-icons/icons/svg/src/check_circle-filled-color.svg

<svg width="24" height="24" viewBox="0 0 24 24" fill="none" xmlns="http://www.w3.org/2000/svg">
<g clip-path="url(#clip0)">
<path d="M12 23.997C5.383 23.997 0 18.614 0 11.997C0 5.37998 5.383 -0.00302124 12 -0.00302124C18.617 -0.00302124 24 5.37998 24 11.997C24 18.614 18.617 23.997 12 23.997Z" fill="#29D305"/>
<path fill-rule="evenodd" clip-rule="evenodd" d="M6.46966 11.3059C6.76255 11.0133 7.23743 11.0133 7.53032 11.3059L10.5355 14.3076L17.0763 7.77438C17.3692 7.48182 17.844 7.48182 18.1369 7.77438C18.4298 8.06693 18.4298 8.54126 18.1369 8.83382L11.0659 15.8968C10.773 16.1893 10.2981 16.1893 10.0052 15.8968L6.46966 12.3653C6.17677 12.0727 6.17677 11.5984 6.46966 11.3059Z" fill="black"/>
</g>
<defs>
<clipPath id="clip0">
<path d="M0 0H24V24H0V0Z" fill="white"/>
</clipPath>
</defs>
</svg>

<svg width="24" height="24" fill="none" xmlns="http://www.w3.org/2000/svg"><g clip-path="url(#clip0)"><path d="M12 23.997c-6.617 0-12-5.383-12-12s5.383-12 12-12 12 5.383 12 12-5.383 12-12 12z" fill="#29D305"/><path fill-rule="evenodd" clip-rule="evenodd" d="M6.47 11.306a.75.75 0 011.06 0l3.006 3.002 6.54-6.534a.75.75 0 011.06 1.06l-7.07 7.063a.75.75 0 01-1.06 0L6.47 12.365a.748.748 0 010-1.06z" fill="#000"/></g><defs><clipPath id="clip0"><path d="M0 0h24v24H0V0z" fill="#fff"/></clipPath></defs></svg>
